packages/core/src/svgs/networks/branded/shiden.svg

<svg width="24" height="24" viewBox="0 0 24 24" fill="none" xmlns="http://www.w3.org/2000/svg">
<path d="M16.7067 6.3314C15.0126 6.80381 12.5132 7.79208 10.2238 9.8176C7.9227 11.9376 9.4848 13.8286 9.50101 13.8473C9.50101 13.8473 8.65779 12.3248 10.6971 10.449C10.7232 10.4266 13.3265 8.22553 17.1129 7.16967C17.5954 7.03519 18.0836 6.92277 18.5633 6.83657L18.5968 6.83036L19.2061 5.86346L19.0568 5.87381C19.0472 5.8745 18.0959 5.94415 16.7067 6.3314Z" fill="#5928B1"/>
<path d="M19.3124 3.62069C18.9225 3.29931 18.5329 3.04483 18.529 3.04242L18.5054 3.02759L18.478 3.03104C18.4674 3.03207 17.4164 3.15862 15.9687 3.56242C13.3789 4.28448 9.89575 5.76586 8.00961 8.71862C7.11356 10.06 7.83456 11.6652 7.83456 11.6652L7.81307 11.2566C7.81061 11.2134 7.68698 6.88621 16.7472 4.35897C17.54 4.13793 18.392 3.93414 19.2789 3.75276L19.4342 3.72104L19.3124 3.62069Z" fill="#764BC4"/>
<path d="M19.8603 4.18583C19.8484 4.18686 18.6564 4.311 16.9961 4.77411C15.2385 5.26445 12.6796 6.21479 10.4701 7.95893C9.1669 8.94962 8.3427 10.1451 8.20745 11.2389C8.14123 11.7727 8.78016 12.9058 8.78016 12.9058L8.64596 12.5034C8.63962 12.4851 8.06867 10.6517 10.9622 8.52514C12.5834 7.33307 14.273 6.51721 16.2789 5.9579C17.3131 5.66962 18.3042 5.47997 19.3993 5.27962L19.438 5.27273L19.4546 5.23755C19.5373 5.06376 19.9318 4.30307 19.9361 4.29549L19.9998 4.17169L19.8603 4.18583Z" fill="#764BC4"/>
<path d="M7.19702 9.75103C7.30621 8.03379 8.63479 6.44655 11.1489 5.03276C12.4736 4.2231 13.9547 3.5869 15.5506 3.14172C16.9042 2.76414 18.0479 2.65138 18.0479 2.65138L17.1282 2C17.1198 2.00103 16.272 2.1031 15.06 2.44103C7.28895 4.60828 6.32598 8.34241 6.41192 9.84345C6.56232 12.4607 9.71012 14.3217 9.71012 14.3217C9.71012 14.3217 7.03465 12.3103 7.19702 9.75103Z" fill="#BBA5E1"/>
<path d="M7.2932 17.6686C8.98738 17.1962 11.4867 16.2079 13.7765 14.1824C16.0772 12.0624 14.5155 10.1717 14.4993 10.1528C14.4993 10.1528 15.3425 11.6752 13.3028 13.5514C13.2771 13.5735 10.6738 15.7745 6.88744 16.8307C6.40454 16.9652 5.91637 17.0773 5.43664 17.1635L5.40353 17.1697L4.79419 18.1369L4.94353 18.1266C4.95304 18.1255 5.90404 18.0559 7.2932 17.6686Z" fill="#5928B1"/>
<path d="M4.68768 20.3793C4.93894 20.5847 5.2005 20.7777 5.47137 20.9576L5.49462 20.9724L5.52244 20.969C5.53301 20.9679 6.58404 20.8414 8.03166 20.4376C10.6215 19.7155 14.1047 18.2341 15.9908 15.2814C16.8865 13.94 16.1655 12.3348 16.1655 12.3348L16.1873 12.7435C16.1895 12.7866 16.3134 17.1138 7.25326 19.641C6.41683 19.8725 5.57226 20.0747 4.72114 20.2473L4.56616 20.279L4.68768 20.3793Z" fill="#764BC4"/>
<path d="M4.13983 19.8141C4.15181 19.8131 5.34337 19.6889 7.00409 19.2258C8.76167 18.7355 11.3206 17.7852 13.53 16.041C14.8333 15.0503 15.6575 13.8548 15.7927 12.761C15.8589 12.2272 15.22 11.0941 15.22 11.0941L15.3542 11.4965C15.3602 11.5148 15.9315 13.3483 13.038 15.4748C11.4167 16.6669 9.72711 17.4827 7.72121 18.042C6.68709 18.3307 5.69594 18.52 4.60054 18.7203L4.56214 18.7272L4.54559 18.7624C4.46282 18.9362 4.06798 19.6969 4.0641 19.7045L4 19.8283L4.13983 19.8141Z" fill="#764BC4"/>
<path d="M16.8034 14.249C16.6942 15.9662 15.3656 17.5535 12.8515 18.9673C11.5264 19.7769 10.0457 20.4131 8.44975 20.8583C7.09616 21.2359 5.95215 21.3486 5.95215 21.3486L6.87215 22C6.8806 21.999 7.72875 21.8969 8.94039 21.559C16.7114 19.3918 17.6744 15.6576 17.5881 14.1566C17.4377 11.5393 14.2899 9.67865 14.2899 9.67865C14.2899 9.67865 16.9657 11.6897 16.8034 14.249Z" fill="#BBA5E1"/>
</svg>

<svg xmlns="http://www.w3.org/2000/svg" width="24" height="24" fill="none" viewBox="0 0 24 24">
    <path fill="#5928B1" d="M16.707 6.331c-1.694.473-4.194 1.461-6.483 3.487-2.301 2.12-.74 4.01-.723 4.03 0 0-.843-1.523 1.196-3.399.026-.022 2.63-2.223 6.416-3.28.482-.134.97-.246 1.45-.332l.034-.007.61-.967-.15.01c-.01.002-.961.071-2.35.458"/>
    <path fill="#764BC4" d="M19.312 3.62a10 10 0 0 0-.783-.578l-.024-.014-.027.003c-.01.001-1.062.128-2.51.531-2.59.722-6.072 2.204-7.958 5.157-.896 1.341-.175 2.946-.175 2.946l-.022-.408c-.002-.044-.126-4.37 8.934-6.898a37 37 0 0 1 2.532-.606l.155-.032z"/>
    <path fill="#764BC4" d="M19.86 4.186c-.012 0-1.204.125-2.864.588-1.757.49-4.316 1.44-6.526 3.185-1.303.99-2.127 2.186-2.263 3.28-.066.534.573 1.667.573 1.667l-.134-.403c-.006-.018-.577-1.851 2.316-3.978 1.621-1.192 3.311-2.008 5.317-2.567 1.034-.288 2.025-.478 3.12-.678l.039-.007.017-.035c.082-.174.477-.935.481-.943L20 4.172z"/>
    <path fill="#BBA5E1" d="M7.197 9.751c.11-1.717 1.438-3.304 3.952-4.718a17.4 17.4 0 0 1 4.402-1.891c1.353-.378 2.497-.49 2.497-.49L17.128 2c-.008.001-.856.103-2.068.441-7.771 2.167-8.734 5.901-8.648 7.402.15 2.618 3.298 4.479 3.298 4.479S7.035 12.31 7.197 9.75"/>
    <path fill="#5928B1" d="M7.293 17.669c1.694-.473 4.194-1.461 6.484-3.487 2.3-2.12.739-4.01.722-4.03 0 0 .843 1.523-1.196 3.4-.026.021-2.63 2.223-6.416 3.279-.482.134-.97.246-1.45.332l-.033.007-.61.967.15-.01c.009-.002.96-.071 2.35-.458"/>
    <path fill="#764BC4" d="M4.688 20.38q.377.308.783.578l.024.014.027-.003c.011-.001 1.062-.128 2.51-.531 2.59-.723 6.073-2.204 7.959-5.157.896-1.341.175-2.946.175-2.946l.021.408c.002.044.126 4.37-8.934 6.898q-1.254.348-2.532.606l-.155.032z"/>
    <path fill="#764BC4" d="M4.14 19.814c.012 0 1.203-.125 2.864-.588 1.758-.49 4.317-1.44 6.526-3.185 1.303-.99 2.128-2.186 2.263-3.28.066-.534-.573-1.667-.573-1.667l.134.402c.006.019.578 1.852-2.316 3.979-1.621 1.192-3.31 2.008-5.317 2.567-1.034.289-2.025.478-3.12.678l-.039.007-.016.035c-.083.174-.478.935-.482.942L4 19.829z"/>
    <path fill="#BBA5E1" d="M16.803 14.249c-.109 1.717-1.437 3.304-3.952 4.718a17.4 17.4 0 0 1-6.899 2.382l.92.651c.009-.001.857-.103 2.068-.441 7.771-2.167 8.734-5.901 8.648-7.402-.15-2.618-3.298-4.478-3.298-4.478s2.676 2.01 2.513 4.57"/>
</svg>
